T: Frieze Breeches, The
M: 12/8
L: 1/8
K: Dmix
D2E F2G A2d cAG|1A3 BAG AAA ABA:|2F2A G2E D3 D3:||d2e fed e2d cAG|1AAA BAG AAA AAA:|2F2A G2E D3 D2A:||
